X:3
T:Vergissmeinnicht-Mazurka  CGF 7- chords
M:3/4
L:1/8
K:Cmaj%%MIDI gchordon
"C"G>A G2E2 | "F"F2A2A2 | "G7"G>A G2D2 | "C"E2c2c2 | e2d2c2 |1 "G"c2B2B2 | "D7"d2c2A2 | "G7"A2G2G2 :|2 
"Dm/F"B>A d2d2 | "G7"c>B A>G A>B | "C"c2c2z2 |: [K:Gmaj] "G"BD GB dd | "D7"BD AD FD | cD FA dD | "G"BD GB dD | BD GB dd | 
"D7"BD AD FD | cD FA dF | "G"G2G2"_> Teil A"z2 :: [K:Fmaj] "F"cd cA FG | "C7"FE E4 | cd cB GA | "F"GF F4 | "F7"FG Fc Ac | 
"Bb"cB B4 | "C7"ed cB GA | "F"F2F2z2 :: [L:1/4] "C7"GG>B | "F"AA>c | "Bb"BB>d | "F"c3 | ff>A | "Gm/Bb"dd>G | "C7"cc>E | "F"FFz :| 

